icons/capsule-line.svg

<svg xmlns="http://www.w3.org/2000/svg" width="24" height="24" fill="none"><g clip-path="url(#a)"><g><path fill="#121212" d="M19.778 4.22197C22.121 6.56497 22.121 10.364 19.778 12.707L12.708 19.778C10.364 22.121 6.56497 22.121 4.22197 19.778C1.87897 17.435 1.87897 13.636 4.22197 11.293L11.292 4.22197C13.636 1.87897 17.435 1.87897 19.778 4.22197ZM14.122 15.535L8.46497 9.87797L5.63597 12.708C4.07397 14.269 4.07397 16.802 5.63597 18.364C7.19797 19.926 9.73097 19.926 11.293 18.364L14.122 15.534V15.535ZM18.364 5.63597C16.802 4.07397 14.269 4.07397 12.707 5.63597L9.87997 8.46397L15.537 14.121L18.365 11.293C19.927 9.73097 19.927 7.19797 18.365 5.63597H18.364Z"/></g></g><defs><clipPath id="a"><rect width="24" height="24" fill="white"/></clipPath></defs></svg>

<svg width="24" height="24" fill="none" xmlns="http://www.w3.org/2000/svg"><g clip-path="url(#a)"><path d="M19.778 4.222a6 6 0 0 1 0 8.485l-7.07 7.071a6.001 6.001 0 0 1-8.486-8.485l7.07-7.071a6.001 6.001 0 0 1 8.486 0Zm-5.656 11.313L8.465 9.878l-2.829 2.83a4 4 0 1 0 5.657 5.656l2.829-2.83v.001Zm4.242-9.899a4 4 0 0 0-5.657 0L9.88 8.464l5.657 5.657 2.828-2.828a4 4 0 0 0 0-5.657h-.001Z" /></g><defs><clipPath id="a"><path fill="#fff" d="M0 0h24v24H0z"/></clipPath></defs></svg>
